public/icons/dairy-free.svg

<?xml version="1.0" encoding="UTF-8"?>
<svg fill="none" viewBox="0 0 16 16" xmlns="http://www.w3.org/2000/svg">
<path d="m35.488 28.942c1.7392 0.5999 2.8118 1.547 3.3787 2.21v-0.0079c0.7585 0.892 1.1876 1.8944 1.1263 2.6442 0.0689 0.7499-0.3601 1.7602-1.1263 2.6442-0.8887 1.0261-2.9727 2.7626-6.949 2.7784h-0.046c-1.3791 0-2.5283-0.3236-3.4553-0.9314-0.0208 0.0161-0.0381 0.0358-0.0542 0.0541-0.0077 0.0088-0.0151 0.0172-0.0225 0.0248-1.5629 1.5629-3.6315 1.6418-4.0299 1.6418h-0.1226c-0.3831 0-2.4517-0.0789-4.007-1.6418-0.6589-0.663-1.1186-1.4918-1.4021-2.4784l-2.3061-0.1263c-0.6896-0.0394-1.2259-0.6235-1.2259-1.3339v-2.3837c-1.8541 0-3.7158-0.7341-5.1256-2.1864-2.8271-2.9126-2.8271-7.6484 0-10.561 1.4098-1.4602 3.2715-2.1864 5.1256-2.1864v-1.0734c0.0077-0.0158 0.0077-0.0237 0.0077-0.0395 0.0077-0.0395 0.0153-0.0789 0.0383-0.1184 0.0077-0.0079 0.0077-0.0237 0.0077-0.0237l2.7888-4.2386v-2.4784c0-0.30783 0.1226-0.59987 0.3371-0.81299 0.2145-0.21311 0.4903-0.33151 0.7968-0.31572l12.067 0.37098c0.5976 0.01578 1.065 0.51305 1.065 1.1287v2.5021l2.8654 3.4572c0.0537 0.0552 0.0843 0.142 0.0843 0.221l0.1839 13.26zm-2.8578-0.5446c0.8045 0.0473 1.5247 0.1736 2.1682 0.3394h0.0077l-0.1839-12.913-2.2601-2.7232 0.2681 15.297zm-2.8577-11.674 0.0536 11.934c0.6282-0.1894 1.3254-0.292 2.0839-0.2841h0.023l-0.2605-14.973-1.9 3.323zm-10.573-8.0194c-0.1149 0-0.2145 0.03946-0.2988 0.11839h0.0077c-0.0767 0.08683-0.1226 0.18944-0.1226 0.30783v0.63934l4.4437 0.13419c0.1839 0.00789 0.3294 0.16576 0.3294 0.36306-0.0076 0.1895-0.1609 0.3394-0.3447 0.3394h-0.0077l-4.4284-0.1342v0.8999l9.9677 0.3078 2.9191 0.0868v-2.2653c0-0.2289-0.1763-0.42623-0.3984-0.42623l-12.067-0.37097zm0.0843 3.394-0.6742-0.0237v0.0079l-2.3981 3.6387 13.025 0.5447 2.1759-3.7966-12.128-0.371zm-8.6806 7.68c-2.559 2.6363-2.559 6.9301 0 9.5664 2.559 2.6363 6.7269 2.6363 9.2858 0 2.559-2.6363 2.559-6.9301 0-9.5664-1.2794-1.3182-2.9573-1.9733-4.6429-1.9733-1.6855 0-3.3634 0.6551-4.6429 1.9733zm10.044 18.059c1.4864 1.4918 3.601 1.4444 3.601 1.4444v-0.0079l0.0034 1e-4c0.1029 0.0011 2.1581 0.0231 3.6128-1.4445 1.0037-1.0103 1.5094-2.5021 1.5017-4.428-0.0077-1.6023-0.2528-2.8889-0.5976-3.9387l-0.0077-0.0079c-0.0153-0.0237-0.0153-0.0552-0.0153-0.0789-0.3907-1.1445-0.9041-1.9891-1.3791-2.5732-1.0649-1.3023-2.3138-1.8864-3.0952-1.8864h-0.0537c-0.6129 0-1.1032 0.1579-1.7392 0.5683-0.0229 0.0158-0.0383 0.0237-0.0612 0.0237-0.1992 1.5786-0.8735 3.1099-2.0533 4.3254-0.3295 0.3394-0.6819 0.6236-1.0497 0.8761-0.1456 0.9156-0.1685 2.289-0.1685 2.6995-0.0077 1.9259 0.498 3.4177 1.5016 4.428zm17.706-1.8865c0.7279-0.8445 1.0037-1.6812 0.9577-2.1311v-0.0789c0.046-0.4499-0.2298-1.2866-0.9577-2.1312-0.8121-0.9392-2.7275-2.5257-6.4357-2.5415-0.9271-0.0395-1.7162 0.1341-2.4134 0.4341 0.3294 1.0656 0.5593 2.3442 0.5593 3.8992 0.0077 1.7759-0.3984 3.2204-1.1952 4.3175 0.8121 0.513 1.8311 0.7972 3.0493 0.7735 3.7082-0.0158 5.6236-1.6023 6.4357-2.5416zm-5.3862-5.0275c-0.0153-0.1974 0.1226-0.3631 0.3141-0.3789h0.0077c0.0996-0.0079 2.3521-0.1579 4.3211 2.2574 0.1149 0.15 0.0996 0.371-0.046 0.4973-0.0689 0.0552-0.1455 0.0789-0.2222 0.0789-0.0919 0-0.1915-0.0473-0.2605-0.1263-1.7103-2.0943-3.6409-2.0094-3.7425-2.005l-4e-3 2e-4c-0.1838 0.0158-0.3524-0.1263-0.3677-0.3236zm-8.6268-1.0653c-1.9996 0-3.6239 1.8312-3.6239 4.0886s1.6243 4.0886 3.6239 4.0886c1.9997 0 3.624-1.8312 3.624-4.0886s-1.6243-4.0886-3.624-4.0886zm0 7.4668c-1.6166 0-2.9344-1.5155-2.9344-3.3782 0-1.8628 1.3178-3.3783 2.9344-3.3783s2.9344 1.5155 2.9344 3.3783c0 1.8627-1.3178 3.3782-2.9344 3.3782zm-5.884-14.596-1.7851 1.8391 1.7851 1.8391c0.3831 0.3946 0.3831 1.0734 0 1.4681-0.383 0.3946-1.0419 0.3946-1.425 0l-1.7852-1.8391-1.7851 1.8391c-0.3831 0.3946-1.0343 0.3946-1.4251 0-0.383-0.3947-0.383-1.0735 0-1.4681l1.7852-1.8391-1.7852-1.8391c-0.383-0.3947-0.383-1.0735 0-1.4681 0.3831-0.3947 1.042-0.3947 1.4251 0l1.7851 1.839 1.7852-1.839c0.3831-0.3947 1.042-0.3947 1.425 0 0.3831 0.3946 0.3831 1.0734 0 1.4681z" clip-rule="evenodd" fill="currentColor" fill-rule="evenodd"/>
</svg>

<svg width="16" height="16" viewBox="0 0 16 16" fill="none" xmlns="http://www.w3.org/2000/svg">
<path fill-rule="evenodd" clip-rule="evenodd" d="M35.4878 28.9418C37.227 29.5417 38.2996 30.4888 38.8665 31.1518V31.1439C39.625 32.0359 40.0541 33.0383 39.9928 33.7881C40.0617 34.538 39.6327 35.5483 38.8665 36.4323C37.9778 37.4584 35.8938 39.1949 31.9175 39.2107H31.8715C30.4924 39.2107 29.3432 38.8871 28.4162 38.2793C28.3954 38.2954 28.3781 38.3151 28.362 38.3334C28.3543 38.3422 28.3469 38.3506 28.3395 38.3582C26.7766 39.9211 24.708 40 24.3096 40H24.187C23.8039 40 21.7353 39.9211 20.18 38.3582C19.5211 37.6952 19.0614 36.8664 18.7779 35.8798L16.4718 35.7535C15.7822 35.7141 15.2459 35.13 15.2459 34.4196V32.0359C13.3918 32.0359 11.5301 31.3018 10.1203 29.8495C7.29322 26.9369 7.29322 22.2011 10.1203 19.2885C11.5301 17.8283 13.3918 17.1021 15.2459 17.1021V16.0445V16.0287C15.2536 16.0129 15.2536 16.005 15.2536 15.9892L15.2536 15.9892C15.2613 15.9497 15.2689 15.9103 15.2919 15.8708C15.2996 15.8629 15.2996 15.8471 15.2996 15.8471L18.0884 11.6085V9.13011C18.0884 8.82228 18.211 8.53024 18.4255 8.31712C18.64 8.10401 18.9158 7.98561 19.2223 8.0014L31.2892 8.37238C31.8868 8.38816 32.3542 8.88543 32.3542 9.50109V12.0032L35.2196 15.4604C35.2733 15.5156 35.3039 15.6024 35.3039 15.6814L35.4878 28.9418ZM32.63 28.3972C33.4345 28.4445 34.1547 28.5708 34.7982 28.7366H34.8059L34.622 15.8235L32.3619 13.1003L32.63 28.3972ZM29.7723 16.7233L29.8259 28.6576C30.4541 28.4682 31.1513 28.3656 31.9098 28.3735H31.9328L31.6723 13.4003L29.7723 16.7233ZM19.1993 8.70389C19.0844 8.70389 18.9848 8.74335 18.9005 8.82228H18.9082C18.8315 8.90911 18.7856 9.01172 18.7856 9.13011V9.76945L23.2293 9.90364C23.4132 9.91153 23.5587 10.0694 23.5587 10.2667C23.5511 10.4562 23.3978 10.6061 23.214 10.6061H23.2063L18.7779 10.4719V11.3718L28.7456 11.6796L31.6647 11.7664V9.50109C31.6647 9.27219 31.4884 9.07486 31.2663 9.07486L19.1993 8.70389ZM19.2836 12.0979L18.6094 12.0742V12.0821L16.2113 15.7208L29.2359 16.2655L31.4118 12.4689L19.2836 12.0979ZM10.603 19.7779C8.04405 22.4142 8.04405 26.708 10.603 29.3443C13.162 31.9806 17.3299 31.9806 19.8888 29.3443C22.4478 26.708 22.4478 22.4142 19.8888 19.7779C18.6094 18.4597 16.9315 17.8046 15.2459 17.8046C13.5604 17.8046 11.8825 18.4597 10.603 19.7779ZM20.6473 37.8373C22.1337 39.3291 24.2483 39.2817 24.2483 39.2817V39.2738L24.2517 39.2739C24.3546 39.275 26.4098 39.297 27.8645 37.8294C28.8682 36.8191 29.3739 35.3273 29.3662 33.4014C29.3585 31.7991 29.1134 30.5125 28.7686 29.4627L28.7609 29.4548C28.7456 29.4311 28.7456 29.3996 28.7456 29.3759C28.3549 28.2314 27.8415 27.3868 27.3665 26.8027C26.3016 25.5004 25.0527 24.9163 24.2713 24.9163H24.2176C23.6047 24.9163 23.1144 25.0742 22.4784 25.4846C22.4555 25.5004 22.4401 25.5083 22.4172 25.5083C22.218 27.0869 21.5437 28.6182 20.3639 29.8337C20.0344 30.1731 19.682 30.4573 19.3142 30.7098C19.1686 31.6254 19.1457 32.9988 19.1457 33.4093C19.138 35.3352 19.6437 36.827 20.6473 37.8373ZM38.3532 35.9508C39.0811 35.1063 39.3569 34.2696 39.3109 33.8197V33.7408C39.3569 33.2909 39.0811 32.4542 38.3532 31.6096C37.5411 30.6704 35.6257 29.0839 31.9175 29.0681C30.9904 29.0286 30.2013 29.2022 29.5041 29.5022C29.8335 30.5678 30.0634 31.8464 30.0634 33.4014C30.0711 35.1773 29.665 36.6218 28.8682 37.7189C29.6803 38.2319 30.6993 38.5161 31.9175 38.4924C35.6257 38.4766 37.5411 36.8901 38.3532 35.9508ZM32.967 30.9233C32.9517 30.7259 33.0896 30.5602 33.2811 30.5444H33.2888C33.3884 30.5365 35.6409 30.3865 37.6099 32.8018C37.7248 32.9518 37.7095 33.1728 37.5639 33.2991C37.495 33.3543 37.4184 33.378 37.3417 33.378C37.2498 33.378 37.1502 33.3307 37.0812 33.2517C35.3709 31.1574 33.4403 31.2423 33.3387 31.2467L33.3347 31.2469C33.1509 31.2627 32.9823 31.1206 32.967 30.9233ZM24.3402 29.858C22.3406 29.858 20.7163 31.6892 20.7163 33.9466C20.7163 36.204 22.3406 38.0352 24.3402 38.0352C26.3399 38.0352 27.9642 36.204 27.9642 33.9466C27.9642 31.6892 26.3399 29.858 24.3402 29.858ZM24.3402 37.3248C22.7236 37.3248 21.4058 35.8093 21.4058 33.9466C21.4058 32.0838 22.7236 30.5683 24.3402 30.5683C25.9568 30.5683 27.2746 32.0838 27.2746 33.9466C27.2746 35.8093 25.9568 37.3248 24.3402 37.3248ZM18.4562 22.7284L16.6711 24.5675L18.4562 26.4066C18.8393 26.8012 18.8393 27.48 18.4562 27.8747C18.0732 28.2693 17.4143 28.2693 17.0312 27.8747L15.246 26.0356L13.4609 27.8747C13.0778 28.2693 12.4266 28.2693 12.0358 27.8747C11.6528 27.48 11.6528 26.8012 12.0358 26.4066L13.821 24.5675L12.0358 22.7284C11.6528 22.3337 11.6528 21.6549 12.0358 21.2603C12.4189 20.8656 13.0778 20.8656 13.4609 21.2603L15.246 23.0993L17.0312 21.2603C17.4143 20.8656 18.0732 20.8656 18.4562 21.2603C18.8393 21.6549 18.8393 22.3337 18.4562 22.7284Z" fill="currentColor"/>
</svg>
